X: 40168
T: Tim Whelan's March
R: polka
M: 2/4
K: Adorian
|:gf|eA Ag/f/|e/d/e/f/ g/a/g/e/|dG B/A/G/A/|Bd dg/f/|
eA Ag/f/|e/d/e/f/ g/a/g/e/|dB gB|BA A2:|
|:ea a/b/a/g/|e/d/e/f/ g/a/g/e/|dG B/A/G/A/|Bd d2|
ea a/b/a/g/|e/d/e/f/ g/a/g/e/|dB gB|BA A2:|

